X:1
T:Title
%%score { ( 1 3 ) | ( 2 4 ) }
L:1/8
Q:1/4=100
M:4/4
K:C
V:1 treble nm="Grand Piano"
V:3 treble 
V:2 bass 
V:4 bass 
V:1
 [Ec]2 [Ec]2 [Ec]2 [EG]2 | [CE]>[DF] [EG]>[FA] [EG]4 | [FA]>[GB] [Ac]>[FA] [FA]>[EG] [EG]2 | %3
w: Samuel~W.~Beazley * * *|||
 z4 d4 | [^Ge]2 [EGd]2 [EAc]2 [E=GA]2 | [DAd]>[DAd] [DFA]>[DFc] [DGB]4 | %6
w: |||
 [CGc]>[GB] [Gc]>d e>[Gc] A>d | c>c [FB]>[FB] [Ec]4 | [Ec]2[K:bass][K:treble] z2 z4 | %9
w: |||
 [FB]>A [FB]>c [FB]3 G | d2 d2 d2 d2 | [CGc]>[Gd] [CAc]>[FA] [CEG]4 | e2 B2 e2 e2 | %13
w: ||||
 [Af]>f [Ad]>d [^Ge]2 B2 | c>B c>A G2 [Gc]2 | B>B A>B [Ec]4 |] %16
w: |||
V:2
 [C,G,]2 [C,G,]2 [C,G,]2 [C,C]2 | [C,G,]>[C,G,] [C,C]>[C,C] [C,C]4 | %2
 [F,C]>[F,C] [F,C]>[F,C] [C,C]>[C,C] [C,C]2 | z4[K:treble] [B,G]4 | [E,B,]2 E,2 A,2 G,2 | %5
 ^F,>F, D,>D, G,2 =F,2 | z4[K:treble] z2[K:bass] C2 | [G,E]>[G,E] [G,,G,]>[G,,G,] [C,G,]4 | %8
 z2 G,2 z4 | D,->[D,G,F] G,>[G,F] [D,G,]2 z B, | [G,B,F]2 [G,B,F]2 [F,B,F]2 [G,B,G]2 | %11
 z z/ C/ z z/ C/ C,4 | B,->[^F,B,] ^G,>E,[K:treble] C->[B,C] [CA]2 | D2 C2 z4 | %14
 [A,CE]>[^G,DE] [A,CE]>[^F,C_E] [=G,C=E]2 [E,C]2 | [G,DF]>[G,DF] [G,B,F]>[G,F][K:bass] [C,G,]4 |] %16
V:3
 x8 | x8 | x8 | [D^F]>[Fd] [Fd]>[Fe] z2 F,2 | x8 | x8 | x8 | x8 | %8
 z z/[K:bass] G,,/[K:treble] [Ec]2 [CEc]2 [CGc]2 | x8 | z z/ A,/ z z/ C/ z z/ A,/ z z/ F,/ | x8 | %12
 ^G>A [De]->[DGe] z z/ G/ z z/ A,/ | x8 | x8 | x8 |] %16
V:4
 x8 | x8 | x8 | [D,C]>[D,C] [D,C]>[D,C][K:treble] G,2 z2 | x8 | x8 | %6
 E,>[D,G,] [E,C]>[K:treble][G,B,G] [CG]>[K:bass][E,C] [F,F]->[F,A,F] | x8 | %8
 [C,G,]2 C,>E, A,>G, E,>C, | G,2 G,,2 z2 G,2 | x8 | E,2 F,2 z4 | E,2 z2[K:treble] [A,A]2 z2 | %13
 D,->[D,DA] F,->[F,A,A] [E,B,]2 [^G,DE]2 | x8 | x4[K:bass] x4 |] %16

